src/scalable/devices/bluetooth.svg

<?xml version="1.0" encoding="UTF-8" standalone="no"?>
<svg
   xmlns:dc="http://purl.org/dc/elements/1.1/"
   xmlns:cc="http://creativecommons.org/ns#"
   xmlns:rdf="http://www.w3.org/1999/02/22-rdf-syntax-ns#"
   xmlns:svg="http://www.w3.org/2000/svg"
   xmlns="http://www.w3.org/2000/svg"
   xmlns:sodipodi="http://sodipodi.sourceforge.net/DTD/sodipodi-0.dtd"
   xmlns:inkscape="http://www.inkscape.org/namespaces/inkscape"
   width="64"
   height="64"
   version="1"
   id="svg10"
   sodipodi:docname="bluetooth.svg"
   inkscape:version="0.92.4 (5da689c313, 2019-01-14)">
  <metadata
     id="metadata16">
    <rdf:RDF>
      <cc:Work
         rdf:about="">
        <dc:format>image/svg+xml</dc:format>
        <dc:type
           rdf:resource="http://purl.org/dc/dcmitype/StillImage" />
      </cc:Work>
    </rdf:RDF>
  </metadata>
  <defs
     id="defs14" />
  <sodipodi:namedview
     pagecolor="#ffffff"
     bordercolor="#666666"
     borderopacity="1"
     objecttolerance="10"
     gridtolerance="10"
     guidetolerance="10"
     inkscape:pageopacity="0"
     inkscape:pageshadow="2"
     inkscape:window-width="1366"
     inkscape:window-height="708"
     id="namedview12"
     showgrid="true"
     inkscape:zoom="10.429825"
     inkscape:cx="29.726004"
     inkscape:cy="15.529497"
     inkscape:window-x="0"
     inkscape:window-y="30"
     inkscape:window-maximized="1"
     inkscape:current-layer="svg10"
     inkscape:snap-bbox="true"
     inkscape:bbox-nodes="true">
    <inkscape:grid
       type="xygrid"
       id="grid840" />
  </sodipodi:namedview>
  <path
     inkscape:connector-curvature="0"
     id="path855-0"
     d="M 25.710807,57.484481 C 19.61196,55.776261 15.911775,51.524418 14.059223,44.09577 13.052752,40.059867 12.660402,29.244985 13.338052,24.217169 14.866575,12.876286 19.529446,7.3947585 28.628498,6.2421761 31.171039,5.92011 32.86391,5.9193913 35.389478,6.2393261 44.559074,7.4008448 49.178504,12.946606 50.733469,24.660233 51.271254,28.711399 50.947064,39.719261 50.191401,43.066205 48.503216,50.543427 45.311683,54.878055 39.956816,56.966462 37.137669,58.065935 28.86121,58.3669 25.710807,57.4845 Z"
     style="fill:#5cb2fb;fill-opacity:1;stroke-width:2;stroke:#0675d2;stroke-opacity:1;stroke-miterlimit:4;stroke-dasharray:none;opacity:0.75" />
  <g
     style="color:#000000;clip-rule:nonzero;display:inline;overflow:visible;visibility:visible;opacity:0.15;isolation:auto;mix-blend-mode:normal;color-interpolation:sRGB;color-interpolation-filters:linearRGB;solid-color:#000000;solid-opacity:1;fill:#000000;fill-opacity:1;fill-rule:nonzero;stroke:none;stroke-width:0.77777779;stroke-linecap:butt;stroke-linejoin:miter;stroke-miterlimit:4;stroke-dasharray:none;stroke-dashoffset:0;stroke-opacity:1;marker:none;color-rendering:auto;image-rendering:auto;shape-rendering:auto;text-rendering:auto;enable-background:accumulate"
     id="layer1-4-1-2"
     transform="matrix(1.2857143,0,0,1.2857143,20.917143,13.714285)" />
  <g
     style="color:#000000;clip-rule:nonzero;display:inline;overflow:visible;visibility:visible;opacity:0.05;isolation:auto;mix-blend-mode:normal;color-interpolation:sRGB;color-interpolation-filters:linearRGB;solid-color:#000000;solid-opacity:1;vector-effect:none;fill:#002e99;fill-opacity:1;fill-rule:nonzero;stroke:none;stroke-width:0.77777779;stroke-linecap:butt;stroke-linejoin:miter;stroke-miterlimit:4;stroke-dasharray:none;stroke-dashoffset:0;stroke-opacity:1;marker:none;color-rendering:auto;image-rendering:auto;shape-rendering:auto;text-rendering:auto;enable-background:accumulate"
     id="layer1-4-1-2-5"
     transform="matrix(1.2857143,0,0,1.2857143,20.917143,13.714285)" />
  <path
     style="fill:#5cb2fb;fill-opacity:1;stroke-width:2;stroke:none;stroke-opacity:1;stroke-miterlimit:4;stroke-dasharray:none;opacity:1"
     d="M 25.710807,57.484481 C 19.61196,55.776261 15.911775,51.524418 14.059223,44.09577 13.052752,40.059867 12.660402,29.244985 13.338052,24.217169 14.866575,12.876286 19.529446,7.3947585 28.628498,6.2421761 31.171039,5.92011 32.86391,5.9193913 35.389478,6.2393261 44.559074,7.4008448 49.178504,12.946606 50.733469,24.660233 51.271254,28.711399 50.947064,39.719261 50.191401,43.066205 48.503216,50.543427 45.311683,54.878055 39.956816,56.966462 37.137669,58.065935 28.86121,58.3669 25.710807,57.4845 Z"
     id="path830"
     inkscape:connector-curvature="0" />
  <path
     style="fill:none;stroke:#ffffff;stroke-width:2;stroke-linecap:square"
     d="m 22.967076,23 18,18 -9,8.5 v -35 l 9,8.5 -18,16"
     id="path6"
     inkscape:connector-curvature="0" />
</svg>

<svg xmlns="http://www.w3.org/2000/svg" width="64" height="64" version="1"><path d="M25.71 57.484c-6.098-1.708-9.798-5.96-11.65-13.388-1.007-4.036-1.4-14.851-.722-19.879 1.529-11.34 6.191-16.822 15.29-17.975 2.543-.322 4.236-.323 6.761-.003 9.17 1.162 13.79 6.708 15.344 18.421.538 4.051.214 15.06-.542 18.406-1.688 7.477-4.88 11.812-10.234 13.9-2.82 1.1-11.096 1.4-14.246.518z" fill="#5cb2fb" stroke-width="2" stroke="#0675d2" opacity=".75"/><path d="M25.71 57.484c-6.098-1.708-9.798-5.96-11.65-13.388-1.007-4.036-1.4-14.851-.722-19.879 1.529-11.34 6.191-16.822 15.29-17.975 2.543-.322 4.236-.323 6.761-.003 9.17 1.162 13.79 6.708 15.344 18.421.538 4.051.214 15.06-.542 18.406-1.688 7.477-4.88 11.812-10.234 13.9-2.82 1.1-11.096 1.4-14.246.518z" fill="#5cb2fb"/><path d="M22.967 23l18 18-9 8.5v-35l9 8.5-18 16" fill="none" stroke="#fff" stroke-width="2" stroke-linecap="square"/></svg>
